X:2555
T:Petronella
C:anon.
O:England
F:http://abc.musicaviva.com/tunes/england/petronella.abc
%Posted at abcusers Jan 2nd 2001 by Johnny Adams.
M:2/4
L:1/16
Q:1/4=100
K:D
dA|F2AF E2AE|D2D2 D2FA|d2cd e2d2|dcec A2dA|F2AF E2AE|
D2D2 D2FA|d2cd e2c2|d6::dA|F2fd Adaf|g2gf edcB|A2ec Acge|
f2fd AdAF|D2fd Adaf|g2gf edcB|A2ec Agec|d6:|
W:
W:
W:  From Musica Viva - http://www.musicaviva.com
W:  the Internet center for free sheet music downloads.
